app/img/main/ic_management.svg

<svg width="89" height="79" viewBox="0 0 89 79" fill="none" xmlns="http://www.w3.org/2000/svg">
    <g filter="url(#filter0)">
        <path d="M69 0H20C8.9543 0 0 8.9543 0 20V59C0 70.0457 8.9543 79 20 79H69C80.0457 79 89 70.0457 89 59V20C89 8.9543 80.0457 0 69 0Z"
              fill="url(#paint0_linear)"/>
        <path d="M69 0.5H20C9.23045 0.5 0.5 9.23045 0.5 20V59C0.5 69.7696 9.23045 78.5 20 78.5H69C79.7696 78.5 88.5 69.7696 88.5 59V20C88.5 9.23045 79.7696 0.5 69 0.5Z"
              stroke="#FAFAFA" stroke-opacity="0.1"/>
    </g>
    <path d="M32.5 61C33.9834 61 35.4334 60.5601 36.6668 59.736C37.9001 58.9119 38.8614 57.7406 39.4291 56.3701C39.9967 54.9997 40.1453 53.4917 39.8559 52.0368C39.5665 50.582 38.8522 49.2456 37.8033 48.1967C36.7544 47.1478 35.418 46.4335 33.9632 46.1441C32.5083 45.8547 31.0003 46.0033 29.6299 46.5709C28.2594 47.1386 27.0881 48.0999 26.264 49.3332C25.4399 50.5666 25 52.0166 25 53.5C25 55.4891 25.7902 57.3968 27.1967 58.8033C28.6032 60.2098 30.5109 61 32.5 61ZM32.5 50.0909C33.1743 50.0909 33.8334 50.2909 34.394 50.6654C34.9546 51.04 35.3916 51.5725 35.6496 52.1954C35.9076 52.8183 35.9751 53.5038 35.8436 54.1651C35.712 54.8264 35.3874 55.4338 34.9106 55.9106C34.4338 56.3874 33.8264 56.712 33.1651 56.8436C32.5038 56.9751 31.8183 56.9076 31.1954 56.6496C30.5725 56.3916 30.04 55.9546 29.6654 55.394C29.2908 54.8334 29.0909 54.1743 29.0909 53.5C29.0909 52.5959 29.4501 51.7287 30.0894 51.0894C30.7287 50.4501 31.5959 50.0909 32.5 50.0909Z"
          fill="white"/>
    <path d="M64 28.5C64 27.0166 63.5601 25.5666 62.736 24.3332C61.9119 23.0999 60.7406 22.1386 59.3701 21.5709C57.9997 21.0032 56.4917 20.8547 55.0368 21.1441C53.582 21.4335 52.2456 22.1478 51.1967 23.1967C50.1478 24.2456 49.4335 25.582 49.1441 27.0368C48.8547 28.4917 49.0033 29.9997 49.5709 31.3701C50.1386 32.7406 51.0999 33.9119 52.3332 34.736C53.5666 35.5601 55.0166 36 56.5 36C58.4891 36 60.3968 35.2098 61.8033 33.8033C63.2098 32.3968 64 30.4891 64 28.5ZM53.0909 28.5C53.0909 27.8257 53.2909 27.1666 53.6654 26.606C54.04 26.0454 54.5725 25.6084 55.1954 25.3504C55.8183 25.0924 56.5038 25.0249 57.1651 25.1564C57.8264 25.288 58.4338 25.6126 58.9106 26.0894C59.3874 26.5662 59.712 27.1736 59.8436 27.8349C59.9751 28.4962 59.9076 29.1817 59.6496 29.8046C59.3916 30.4275 58.9546 30.96 58.394 31.3346C57.8334 31.7092 57.1743 31.9091 56.5 31.9091C55.5959 31.9091 54.7287 31.5499 54.0894 30.9106C53.4501 30.2713 53.0909 29.4041 53.0909 28.5Z"
          fill="white"/>
    <path d="M44.5944 54.4658L51.3357 61.2812C51.7271 61.6769 52.3662 61.6769 52.7576 61.2812L54.2236 59.7991C54.6089 59.4095 54.6089 58.7823 54.2236 58.3927L50.9356 55.0685H57.5478C58.5264 55.0685 59.4955 54.8736 60.3996 54.495C61.3038 54.1163 62.1253 53.5614 62.8173 52.8618C63.5093 52.1621 64.0582 51.3316 64.4327 50.4175C64.8072 49.5034 65 48.5237 65 47.5342V41C65 40.4477 64.5523 40 64 40H61.9351C61.3829 40 60.9351 40.4477 60.9351 41V47.5342C60.9351 48.4425 60.5783 49.3136 59.943 49.9558C59.3077 50.5981 58.4461 50.9589 57.5478 50.9589H50.9356L54.2236 47.6347C54.6089 47.2451 54.6089 46.6179 54.2236 46.2283L52.7576 44.7462C52.3662 44.3505 51.7271 44.3505 51.3357 44.7462L44.5944 51.5616C44.2138 51.9469 44 52.4692 44 53.0137C44 53.5582 44.2138 54.0805 44.5944 54.4658Z"
          fill="#022AF0"/>
    <path d="M24 34.4658V41C24 41.5523 24.4477 42 25 42H27.0649C27.6171 42 28.0649 41.5523 28.0649 41V34.4658C28.0649 33.5575 28.4217 32.6864 29.057 32.0442C29.6923 31.4019 30.5539 31.0411 31.4522 31.0411H38.0644L34.7764 34.3653C34.3911 34.7549 34.3911 35.3821 34.7764 35.7717L36.2424 37.2538C36.6338 37.6495 37.2729 37.6495 37.6643 37.2538L44.4056 30.4384C44.7862 30.0531 45 29.5308 45 28.9863C45 28.4418 44.7862 27.9195 44.4056 27.5342L37.6643 20.7188C37.2729 20.3231 36.6338 20.3231 36.2424 20.7188L34.7764 22.2009C34.3911 22.5905 34.3911 23.2177 34.7764 23.6073L38.0644 26.9315H31.4522C29.4758 26.9315 27.5803 27.7253 26.1827 29.1382C24.7851 30.5512 24 32.4675 24 34.4658Z"
          fill="#022AF0"/>
    <defs>
        <filter id="filter0" x="0" y="0" width="89" height="83" filterUnits="userSpaceOnUse"
                color-interpolation-filters="sRGB">
            <feFlood flood-opacity="0" result="BackgroundImageFix"/>
            <feBlend mode="normal" in="SourceGraphic" in2="BackgroundImageFix" result="shape"/>
            <feColorMatrix in="SourceAlpha" type="matrix" values="0 0 0 0 0 0 0 0 0 0 0 0 0 0 0 0 0 0 127 0"
                           result="hardAlpha"/>
            <feOffset dy="4"/>
            <feGaussianBlur stdDeviation="15"/>
            <feComposite in2="hardAlpha" operator="arithmetic" k2="-1" k3="1"/>
            <feColorMatrix type="matrix" values="0 0 0 0 0.5 0 0 0 0 1 0 0 0 0 0.625065 0 0 0 0.25 0"/>
            <feBlend mode="normal" in2="shape" result="effect1_innerShadow_5:21"/>
        </filter>
        <linearGradient id="paint0_linear" x1="30" y1="13" x2="105" y2="99" gradientUnits="userSpaceOnUse">
            <stop stop-color="#5DD4E8"/>
            <stop offset="1" stop-color="#76F3B5"/>
        </linearGradient>
    </defs>
</svg>

<svg width="89" height="79" fill="none" xmlns="http://www.w3.org/2000/svg"><g filter="url(#a)"><path d="M69 0H20C8.954 0 0 8.954 0 20v39c0 11.046 8.954 20 20 20h49c11.046 0 20-8.954 20-20V20C89 8.954 80.046 0 69 0Z" fill="url(#b)"/><path d="M69 .5H20C9.23.5.5 9.23.5 20v39C.5 69.77 9.23 78.5 20 78.5h49c10.77 0 19.5-8.73 19.5-19.5V20C88.5 9.23 79.77.5 69 .5Z" stroke="#FAFAFA" stroke-opacity=".1"/></g><path d="M32.5 61a7.5 7.5 0 1 0 0-15 7.5 7.5 0 0 0 0 15Zm0-10.91a3.41 3.41 0 1 1 0 6.82 3.41 3.41 0 0 1 0-6.82ZM64 28.5a7.5 7.5 0 1 0-15 0 7.5 7.5 0 0 0 15 0Zm-10.91 0a3.41 3.41 0 1 1 6.82 0 3.41 3.41 0 0 1-6.82 0Z" fill="#fff"/><path d="m44.594 54.466 6.742 6.815a1 1 0 0 0 1.422 0l1.466-1.482a1 1 0 0 0 0-1.406l-3.288-3.325h6.612c.978 0 1.947-.194 2.852-.573a7.448 7.448 0 0 0 2.417-1.633c.692-.7 1.241-1.53 1.616-2.445A7.607 7.607 0 0 0 65 47.534V41a1 1 0 0 0-1-1h-2.065a1 1 0 0 0-1 1v6.534c0 .909-.357 1.78-.992 2.422a3.369 3.369 0 0 1-2.395 1.003h-6.612l3.288-3.324a1 1 0 0 0 0-1.407l-1.466-1.482a1 1 0 0 0-1.422 0l-6.742 6.816c-.38.385-.594.907-.594 1.452 0 .544.214 1.066.594 1.452ZM24 34.466V41a1 1 0 0 0 1 1h2.065a1 1 0 0 0 1-1v-6.534c0-.909.357-1.78.992-2.422a3.369 3.369 0 0 1 2.395-1.003h6.612l-3.288 3.324a1 1 0 0 0 0 1.407l1.466 1.482a1 1 0 0 0 1.422 0l6.742-6.816c.38-.385.594-.907.594-1.452 0-.544-.214-1.067-.594-1.452l-6.742-6.815a1 1 0 0 0-1.422 0L34.776 22.2a1 1 0 0 0 0 1.406l3.288 3.325h-6.612a7.412 7.412 0 0 0-5.27 2.206A7.576 7.576 0 0 0 24 34.466Z" fill="#022AF0"/><defs><linearGradient id="b" x1="30" y1="13" x2="105" y2="99" gradientUnits="userSpaceOnUse"><stop stop-color="#5DD4E8"/><stop offset="1" stop-color="#76F3B5"/></linearGradient><filter id="a" x="0" y="0" width="89" height="83" filterUnits="userSpaceOnUse" color-interpolation-filters="sRGB"><feFlood flood-opacity="0" result="BackgroundImageFix"/><feBlend in="SourceGraphic" in2="BackgroundImageFix" result="shape"/><feColorMatrix in="SourceAlpha" values="0 0 0 0 0 0 0 0 0 0 0 0 0 0 0 0 0 0 127 0" result="hardAlpha"/><feOffset dy="4"/><feGaussianBlur stdDeviation="15"/><feComposite in2="hardAlpha" operator="arithmetic" k2="-1" k3="1"/><feColorMatrix values="0 0 0 0 0.5 0 0 0 0 1 0 0 0 0 0.625065 0 0 0 0.25 0"/><feBlend in2="shape" result="effect1_innerShadow_5:21"/></filter></defs></svg>
